X:8290
T:Joys of Wedlock, The
M:6/8
I:speed 300
K:G
|:D | GAG GBd | gfe d2c | BdgdBG | FAA A2D | 
GAG GBd | gfe d2c | BdB cAF GGG G2:|
|:e | eaa aga | egg ged | egg dgg | BAB dcB |
eaa aga | egg ged | ege dcB | AGG G2:|


